src/symbols/alphanum/1F201.svg

<svg style="clip-rule:evenodd;fill-rule:evenodd;stroke-miterlimit:10" version="1.1" viewBox="0 0 300 300" xmlns="http://www.w3.org/2000/svg" xmlns:serif="http://www.serif.com/">
 <g transform="scale(4.1667)" serif:id="1F201">
  <rect width="72" height="72" style="fill:none"/>
  <g id="grid" transform="scale(.24)">
   <g transform="matrix(4.1667 0 0 4.1667 223.94 16.667)">
    <path d="m0 64h-35.492c-1.245 0-2.254-1.009-2.254-2.254v-59.492c0-1.245 1.009-2.254 2.254-2.254h35.492c1.245 0 2.254 1.009 2.254 2.254v59.492c0 1.245-1.009 2.254-2.254 2.254z" style="fill:none;stroke-width:.1px;stroke:#00a5ff"/>
   </g>
   <g transform="scale(4.1667)">
    <path d="m0 72h72v-72h-72v72zm4-68h64.001v64.001h-64.001v-64.001z" style="fill-rule:nonzero;fill:#b3b3b3"/>
   </g>
   <g transform="matrix(4.1667 0 0 4.1667 246.15 45.658)">
    <path d="m0 50h-46.154c-1.062 0-1.923-0.86-1.923-1.923v-46.154c0-1.062 0.861-1.923 1.923-1.923h46.154c1.062 0 1.923 0.861 1.923 1.923v46.154c0 1.063-0.861 1.923-1.923 1.923z" style="fill:none;stroke-width:.1px;stroke:#00a5ff"/>
   </g>
   <g transform="matrix(4.1667 0 0 4.1667 16.667 76.059)">
    <path d="m0 35.492v-35.492c0-1.245 1.009-2.254 2.254-2.254h59.492c1.245 0 2.254 1.009 2.254 2.254v35.492c0 1.245-1.009 2.254-2.254 2.254h-59.492c-1.245 0-2.254-1.009-2.254-2.254z" style="fill:none;stroke-width:.1px;stroke:#00a5ff"/>
   </g>
   <g transform="matrix(0 -4.1667 -4.1667 0 150 29.167)">
    <circle cx="-29" r="29" style="fill:none;stroke-width:.1px;stroke:#00a5ff"/>
   </g>
  </g>
  <g transform="matrix(.25 0 0 .26885 -.4584 -.71756)">
   <g id="color">
    <rect x="45.834" y="68.2" width="200" height="136.43" style="fill:#97d2f3"/>
   </g>
  </g>
  <g id="line" transform="matrix(.22305 0 0 .22305 -1.0817 .30722)">
   <g transform="matrix(1.1208 0 0 1.2053 2.7944 -4.5945)">
    <rect x="45.834" y="68.2" width="200" height="136.43" style="fill:none;stroke-linecap:round;stroke-linejoin:round;stroke-miterlimit:1.5;stroke-width:7.7px;stroke:#000"/>
   </g>
   <g transform="matrix(1.076 0 0 1.076 4.8496 -1.3774)">
    <path d="m74.586 115.2h52.974c1.326 0 2.598 0.527 3.536 1.465s1.464 2.209 1.464 3.535v68.789h-57.974" style="fill:none;stroke-linecap:round;stroke-linejoin:round;stroke-miterlimit:1.5;stroke-width:8.33px;stroke:#000"/>
   </g>
   <g transform="matrix(1.076 0 0 1.076 104.76 -1.3774)">
    <path d="m74.586 115.2h52.974c1.326 0 2.598 0.527 3.536 1.465s1.464 2.209 1.464 3.535v68.789h-57.974" style="fill:none;stroke-linecap:round;stroke-linejoin:round;stroke-miterlimit:1.5;stroke-width:8.33px;stroke:#000"/>
   </g>
  </g>
 </g>
</svg>

<?xml version='1.0' encoding='utf-8'?>
<svg xmlns="http://www.w3.org/2000/svg" id="emoji" version="1.1" viewBox="0 0 72 72">
  <g id="grid">
    <path d="M68,4V68H4V4H68m4-4H0V72H72V0Z" fill="#b3b3b3" />
    <path d="m12.92 10.96h46.15a1.923 1.923 0 0 1 1.923 1.923v46.15a1.923 1.923 0 0 1-1.923 1.923h-46.15a1.923 1.923 0 0 1-1.923-1.923v-46.15a1.923 1.923 0 0 1 1.923-1.923z" fill="none" stroke="#00a5ff" stroke-miterlimit="10" stroke-width=".1" />
    <rect fill="none" height="64" rx="2.254" stroke="#00a5ff" stroke-miterlimit="10" stroke-width=".1" width="40" x="16" y="4" />
    <rect fill="none" height="64" rx="2.254" stroke="#00a5ff" stroke-miterlimit="10" stroke-width=".1" transform="translate(72) rotate(90)" width="40" x="16" y="4" />
    <circle cx="36" cy="36" fill="none" r="29" stroke="#00a5ff" stroke-miterlimit="10" stroke-width=".1" />
  </g>
  <g id="color" style="clip-rule:evenodd;fill-rule:evenodd;stroke-miterlimit:10" transform="matrix(.25 0 0 .2688 -.4584 -.7176)">
    <rect height="136.4" style="fill:#97d2f3;stroke-width:0" width="200" x="45.83" y="68.2" />
  </g>
  <g id="line" style="clip-rule:evenodd;fill-rule:evenodd;stroke-miterlimit:10" transform="matrix(.223 0 0 .223 -1.082 .3072)">
    <rect height="136.4" style="clip-rule:evenodd;fill:none;stroke-linecap:round;stroke-linejoin:round;stroke-miterlimit:1.5;stroke-width:7.715;stroke:#000" transform="matrix(1.121 0 0 1.205 2.794 -4.594)" width="200" x="45.83" y="68.2" />
    <path d="m74.59 115.2h52.97c1.326 0 2.598 0.527 3.536 1.465s1.464 2.209 1.464 3.535v68.79h-57.97" style="clip-rule:evenodd;fill:none;stroke-linecap:round;stroke-linejoin:round;stroke-miterlimit:1.5;stroke-width:8.333;stroke:#000" transform="matrix(1.076 0 0 1.076 4.85 -1.377)" />
    <path d="m74.59 115.2h52.97c1.326 0 2.598 0.527 3.536 1.465s1.464 2.209 1.464 3.535v68.79h-57.97" style="clip-rule:evenodd;fill:none;stroke-linecap:round;stroke-linejoin:round;stroke-miterlimit:1.5;stroke-width:8.333;stroke:#000" transform="matrix(1.076 0 0 1.076 104.8 -1.377)" />
  </g>
</svg>
